X: 25055
T: Maids Of Ardnaree, The
R: reel
M: 4/4
K: Dmajor
|:D3E FGAF|G/G/G GA BGAF|D/D/D DE FD E/F/G|1 Add=c ABGE:|2 Add=c ABGA||
d3e fgaf|(3gag dg bgaf|~d3e fgag|fd=cA AG G2|
dcde fgaf|g/g/g dg bgaf|d2 e/f/g abag|fd=cA GBAF||

